X:1
T:Lodoiska
T:Lodoiska
T:Kreutzer
T:Scritto con MuseScore, un software libero e gratuito: http://musescore.org/it
Z:Scritto con MuseScore, un software libero e gratuito: http://musescore.org/it
%%score { 1 | 2 }
L:1/8
Q:1/4=75
M:2/4
K:Bb
V:1 treble nm="Piano" snm="Pno."
V:2 bass 
V:1
 F | BB/>B/ BB | B>F G/A/B/c/ | BB/>B/ BB | d>A B/c/d/e/ | ff/>f/ fb | fd/>e/ fb | fd/e/ f/e/d/c/ | %8
 B2 z!fine! :: F | .B.B A/G/A/F/ | .B.B{/B} A/G/A/F/ | Bc/d/ (e/d/c/B/) | A/B/c/d/ (c/F/G/A/) | %14
 .B.B (A/G/A/F/) | .B.B{/B} (A/G/A/F/) | BB/d/ c/e/A/c/ | B3!D.C.! :: B | Af!wedge!f!wedge!f | %20
 (f/e/d/c/) !wedge!B!wedge!B | AF FG/A/ | (B/A/B/c/) (d/c/d/B/) | %23
 !wedge!A{/=e}!wedge!f{/e}!wedge!f{/e}!wedge!f | f/e/d/c/ !wedge!B!wedge!b | %25
 !wedge!B{/a}!wedge!b (f/e/d/c/) | (B2 b)!D.C.! :| %27
V:2
 z | B,,B, F,D, | B,,2 z2 | B,,B, F,D, | B,,2 z2 | %5
 [B,,D,F,B,][B,,D,F,B,]/>[B,,D,F,B,]/ [B,,D,F,B,]2 | %6
 [B,,D,F,B,][B,,D,F,B,]/>!arpeggio![B,,D,F,B,]/ [B,,D,F,B,]2 | [B,,B,]2 [F,,F,]2 | B,,F,,B,,, :: %9
 z | [F,B,D][F,B,D] [F,CE]2 | [F,B,D][F,B,D] [F,CE]2 | [B,D][B,D] E,^E, | F,2 F,,2 | %14
 F,/D/B,/D/ F,/E/C/E/ | F,/E/C/E/ F,/E/C/E/ | [B,,B,][G,,G,] [D,,E,][F,,F,] | B,,F,, B,,, :: z | %19
 F,[A,C][A,C][A,C] | F,[B,D][B,D][B,D] | F,[CE][CE][CE] | F,[A,C][A,C][A,C] | %23
 F,[A,CE][A,CE][A,CE] | F,[A,C][A,C][A,C] | [F,B,D][F,B,D][F,B,E][F,B,E] | [B,D]3 :| %27

